icons/info-circle.svg

<svg width="24" height="24" viewBox="0 0 24 24" fill="none" xmlns="http://www.w3.org/2000/svg">
<path fill-rule="evenodd" clip-rule="evenodd" d="M12 20.25C16.5563 20.25 20.25 16.5563 20.25 12C20.25 7.44365 16.5564 3.75 12 3.75C7.44365 3.75 3.75 7.44365 3.75 12C3.75 16.5563 7.44365 20.25 12 20.25ZM21.75 12C21.75 17.3848 17.3848 21.75 12 21.75C6.61522 21.75 2.25 17.3848 2.25 12C2.25 6.61522 6.61523 2.25 12 2.25C17.3848 2.25 21.75 6.61522 21.75 12Z" fill="black"/>
<path d="M11.9999 9.30002C12.3999 9.30002 12.7999 9.60002 12.7999 10.1L12.7999 16.1C12.7999 16.5 12.4999 16.9 11.9999 16.9C11.4999 16.9 11.1999 16.6 11.1999 16.1L11.1999 10.1C11.2999 9.60002 11.5999 9.30002 11.9999 9.30002Z" fill="black"/>
<path d="M11.9999 6.30003C12.1999 6.30003 12.3999 6.40003 12.4999 6.50003C12.5999 6.60003 12.5999 6.60003 12.6999 6.70003C12.6999 6.80003 12.7999 6.90003 12.7999 7.00003C12.7999 7.20003 12.6999 7.40003 12.5999 7.50003C12.3999 7.70003 12.0999 7.80003 11.7999 7.70003C11.6999 7.70003 11.5999 7.60003 11.5999 7.50003C11.4999 7.40003 11.3999 7.20003 11.3999 7.00003C11.3999 6.90003 11.3999 6.80003 11.4999 6.70003C11.4999 6.60003 11.5999 6.50003 11.6999 6.50003C11.7999 6.50003 11.7999 6.40003 11.8999 6.30003C11.7999 6.30003 11.8999 6.30003 11.9999 6.30003Z" fill="black"/>
</svg>

<svg xmlns="http://www.w3.org/2000/svg" fill="none" viewBox="0 0 24 24">
  <path fill="#000" fill-rule="evenodd" d="M12 20.25a8.25 8.25 0 1 0 0-16.5 8.25 8.25 0 0 0 0 16.5ZM21.75 12c0 5.385-4.365 9.75-9.75 9.75S2.25 17.385 2.25 12 6.615 2.25 12 2.25s9.75 4.365 9.75 9.75Z" clip-rule="evenodd"/>
  <path fill="#000" d="M12 9.3c.4 0 .8.3.8.8v6c0 .4-.3.8-.8.8s-.8-.3-.8-.8v-6c.1-.5.4-.8.8-.8Zm0-3c.2 0 .4.1.5.2l.2.2c0 .1.1.2.1.3 0 .2-.1.4-.2.5-.2.2-.5.3-.8.2-.1 0-.2-.1-.2-.2-.1-.1-.2-.3-.2-.5 0-.1 0-.2.1-.3 0-.1.1-.2.2-.2s.1-.1.2-.2h.1Z"/>
</svg>
